X:1
T:Alleluia and Haec Dies
T:Nicola Vicentino (1511-c.1575)
T:Alleluia and Haec Dies
T:Taken from p. 62 of Terzo Libro Della Prattica Musicale (1555) as an example of a "chromatic" motet. All accidentals as notated in the original; no ficta applied.
T:Copyright © 
T:Copyright © 
C:Nicola Vicentino (1511-c.1575)
Z:Copyright ©
%%score [ 1 2 3 4 ]
L:1/8
M:3/2
K:C
V:1 treble nm="SOPRANO" snm="S."
V:2 treble nm="ALTO" snm="A."
V:3 treble-8 transpose=-12 nm="TENOR" snm="T."
V:4 bass nm="BASS" snm="B."
V:1
 c8 A4 | _B8 B4 | =B8 =B4 | E8 F4 | ^F8 F4 | A8 A4 | ^G8 G4 | A8 ^F4 | G8 G4 | ^F12 | %10
w: Al- le-|lu- ia|al- le-|lu- ia|al- le-|lu- ia|al- le-|lu- ia|al- le-|lu-|
[M:4/4] G4 E4 | z2 A2 ^F4 | G2 G2 E2 E2 | F2 C2 C2 z c | A4 A2 A2 | D2 D2 G3 G | D4 z2 G2 | %17
w: * ia|haec di-|es quae fe- cit|do- mi- nus haec|di- es quae|fe- cit do- mi-|nus quae|
 E4 E2 F2- |[M:2/4] F2 E2 |[M:3/2] F8 z4 | E8 E4 | B8 B4 | E8 G4 | D8 D4 | A8 d4 | B8 c4 | c8 F4 | %27
w: fe- cit do-|* mi-|nus|Ex- ul-|te- mus|et le-|te- mur|ex- ul-|te- mus|et le-|
 A8 A4 | A4 ^F8 | G8 z4 | G8 B4 | B8 c4 | A4 d8 | B12 |] %34
w: te- mur|in e-|a,|et le-|te- mur|in e-|a|
V:2
 E8 F4 | D8 D4 | G8 G4 | G8 C4 | A8 A4 | E8 E4 | B,8 B,4 | E8 A,4 | D8 D4 | A,12 | %10
w: Al- le-|lu- ia|al- le-|lu- ia|al- le-|lu- ia|al- le-|lu- ia|al- le-|lu-|
[M:4/4] D2 z D G4 | E2 E2 A,3 A, | D3 G, G,2 z C | A,4 G,4 | z2 F2 ^F4 | G2 G2 E4 | F4 D3 D | %17
w: ia haec di-|es quae fe- cit|do- mi- nus haec|di- es|haec di-|es quae fe-|cit do- mi-|
 G,2 C2 G,2 C2 |[M:2/4] G,3 G, |[M:3/2] C8 z4 | C8 C4 | G8 G4 | C8 E4 | G8 G4 | ^F8 F4 | G8 E4 | %26
w: nus quae fe- cit|do- mi-|nus|Ex- ul-|te- mus|et le-|te- mur|ex- ul-|te- mus|
 F8 D4 | F8 F4 | E4 A,8 | D8 z4 | E8 G4 | G8 E4 | F4 ^F8 | G12 |] %34
w: et le-|te- mur|in e-|a,|et le-|te- mur|in e-|a|
V:3
 G8 c4 | F8 F4 | d8 d4 | G4 c4 A4 | d8 d4 | ^c8 c4 | e8 e4 | ^c8 d4 | B8 B4 | d12 |[M:4/4] B4 c4 | %11
w: Al- le-|lu- ia|al- le-|lu- * ia|al- le-|lu- ia|al- le-|lu- ia|al- le-|lu-|ia haec|
 ^c4 d2 z d | B4 c2 G2 | c2 c2 C3 C | c4 z2 d2 | B4 c2 G2 | _B2 B2 !courtesy!=B3 B | c2 G2 c2 A2 | %18
w: di- es quae|fe- cit quae|fe- cit do- mi-|nus haec|di- es quae|fe- cit do- mi-|nus, quae fe- cit|
[M:2/4] c3 c |[M:3/2] A8 z4 | G8 G4 | d8 d4 | G8 G4 | B8 B4 | d8 A4 | d8 G4 | _A8 _B4 | c8 c4 | %28
w: do- mi-|nus|Ex- ul-|te- mus|et le-|te- mur|ex- ul-|te- mus|et le-|te- mur|
 ^c4 d8 | B8 z4 | c4 G4 d4 | d8 G4 | c4 A8 | d12 |] %34
w: in e-|a,|et _ le-|te- mur|in e-|a|
V:4
 C,8 F,,4 | _B,,8 B,,4 | G,,8 G,,4 | C,8 F,4 | D,8 D,4 | A,8 A,,4 | E,8 E,4 | A,,8 D,4 | %8
w: Al- le-|lu- ia|al- le-|lu- ia|al- le-|lu- ia|al- le-|lu- ia|
 G,,8 G,,4 | D,12 |[M:4/4] G,,4 z4 | A,,4 D,4 | G,,2 G,,2 C,4 | F,,2 F,4 E,2 | F,4 D,4 | G,4 C,4 | %16
w: al- le-|lu-|ia|haec di-|es quae fe-|cit do- mi-|nus haec|di- es|
 z4 G,4 | C,6 F,,2 |[M:2/4] C,3 C, |[M:3/2] F,,8 z4 | C,8 C,4 | G,,8 G,,4 | C,8 C,4 | G,8 G,4 | %24
w: quae|fe- cit|do- mi-|nus|Ex- ul-|te- mus|et le-|te- mur|
 D,8 D,4 | G,,8 C,4 | F,,8 _B,,4 | F,,8 F,,4 | A,,4 D,8 | G,,8 z4 | C,8 G,,4 | G,,8 C,4 | %32
w: ex- ul-|te- mus|et le-|te- mur|in e-|a,|et le-|te- mur|
 F,,4 D,8 | G,,12 |] %34
w: in e-|a|

